svg/u1f38a.svg

<svg viewBox="0 0 128 128" xmlns="http://www.w3.org/2000/svg">
  <g>
    <path d="M60.99,15.4c1.13,1.57,1.09,3.69-0.1,5.21c-3.33,4.26-10.39,12.79-17.41,17.97 c-8.66,6.4-16.55,9.27-20.57,10.44c-1.78,0.52-3.68-0.17-4.75-1.68c-2.64-3.71-6.84-11.66-5.19-22.91 C15.3,8.43,33.63,0.71,45.51,4.55S60.99,15.4,60.99,15.4L60.99,15.4z" fill="#FFC107"/>
    <radialGradient id="SVGID_1_" cx="39.6622" cy="33.0658" gradientUnits="userSpaceOnUse" r="15.1022">
      <stop offset="0.3755" stop-color="#AF5700"/>
      <stop offset="1" stop-color="#8F4700"/>
    </radialGradient>
    <path d="M24.5,46.03c-1.17,0.49-2.23-0.88-1.48-1.89c2.2-2.94,6.47-7.76,14.26-14.04 c8.45-6.81,14.44-9.22,17.71-10.07c1.13-0.29,2,0.98,1.32,1.93c-2.21,3.1-6.86,8.76-14.47,14.19C34.46,41.42,28.2,44.47,24.5,46.03 z" fill="url(#SVGID_1_)"/>
    <path d="M32.73,8.74c0.46,1.98,2.96,2.67,5.38,2.26c2.62-0.44,5.92-0.81,5.61-3.47 c-0.32-2.75-4.7-2.64-6.32-2.55C35.03,5.12,32.32,6.99,32.73,8.74z" fill="#FFEE58"/>
    <path d="M84.25,3.72c11.96-3.22,29.52,0.9,33.04,21.62c1.34,7.87-1.79,14.84-3.98,18.56 c-1.08,1.84-3.19,2.82-5.28,2.4c-4.08-0.82-11.68-3.11-21.86-9.47c-5.66-3.53-13.36-10.41-17.72-14.46 c-1.97-1.83-2.16-4.9-0.39-6.93C71.52,11.47,77.61,5.51,84.25,3.72z" fill="#FFC107"/>
    <radialGradient id="SVGID_2_" cx="90.5009" cy="31.97" gradientUnits="userSpaceOnUse" r="21.224">
      <stop offset="0.3755" stop-color="#AF5700"/>
      <stop offset="1" stop-color="#8F4700"/>
    </radialGradient>
    <path d="M73.42,22.5c-0.63-0.63-0.03-1.69,0.84-1.47c3.82,0.96,10.87,3.11,17.13,7.02 c6.42,4.02,12.91,10.13,16.2,13.4c0.65,0.64,0.01,1.72-0.87,1.46c-4.02-1.17-11.41-3.77-18.72-8.7 C80.57,29.2,75.84,24.91,73.42,22.5z" fill="url(#SVGID_2_)"/>
    <path d="M83.59,11.84c-3.95,1.24-5.06-1.55-2.95-3.67c1.52-1.53,7.93-4.26,13.49-3.1 c3.67,0.77,4.82,6.06-0.35,5.99C90.26,11.01,88.43,10.32,83.59,11.84z" fill="#FFEE58"/>
    <path d="M110.02,120.05c-12.45-7.83-20.79-23.08-22.31-40.8c-1.37-16.01,2.51-32.22,5.63-45.24l6.4,2.91 c-2.98,12.46-5.32,26.92-4.06,41.64c1.3,15.23,8.26,28.21,18.6,34.71L110.02,120.05z" fill="#03A9F4"/>
    <path d="M60.58,117.29L57.28,110c3.91-1.77,6.17-6.9,4.83-10.97c-0.65-1.99-2.05-3.89-3.52-5.9 c-1.2-1.64-2.45-3.34-3.47-5.29c-2.66-5.1-3.29-11.2-1.71-16.73c0.8-2.79,2.07-5.26,3.31-7.65c1.4-2.7,2.71-5.24,3.05-7.8 c0.31-2.37-0.25-4.88-1.55-6.89c-1.18-1.81-3-3.37-4.93-5.01c-1.46-1.25-2.98-2.54-4.37-4.06c-3.29-3.6-4.57-7.89-4.55-12.68 l5.57-2.11c0,0,1.01,5.44,2.37,7.61c1.43,2.27,3.56,3.81,5.58,5.53c2.28,1.95,5.23,3.58,7.04,6.38c2.32,3.58,3.33,8.06,2.77,12.3 c-0.52,3.94-2.23,7.24-3.88,10.43c-1.1,2.13-2.14,4.14-2.72,6.17c-1.02,3.58-0.62,7.53,1.11,10.83c0.74,1.42,1.75,2.8,2.83,4.27 c1.78,2.43,3.62,4.93,4.67,8.13C72.34,104.51,68.24,113.83,60.58,117.29z" fill="#03A9F4"/>
    <path d="M10.51,123.31l-4.73-6.45C36.11,94.64,39.34,62.1,37.2,45.52l6.04-1.85 C45.61,62,44.15,98.67,10.51,123.31z" fill="#F48FB1"/>
    <path d="M94.92,73.36c0.18,0.14,0.35,0.27,0.53,0.41c-0.06-3.29,0.1-6.6,0.41-9.88 c-2.68-2.23-5.18-4.62-6.98-7.42c-0.05-0.08-0.09-0.16-0.14-0.24c-0.54,3.6-0.96,7.28-1.16,10.99 C89.97,69.51,92.53,71.51,94.92,73.36z" fill="#0076C6"/>
    <path d="M114.93,95.35l-7.26-3.37c1.85-3.98,0.3-8.79-1.76-11.96c-2.68-4.12-6.9-7.4-10.99-10.57 c-4.39-3.4-9.36-7.25-12.78-12.58c-6.29-9.79-5.18-21.98,1.91-31.21l5.81,3.25c-5.1,6.65-5.51,16.58-0.99,23.63 c2.67,4.17,6.88,7.42,10.95,10.58c4.4,3.41,9.38,7.27,12.8,12.53C116.74,82,117.63,89.55,114.93,95.35z" fill="#F44336"/>
    <path d="M8.99,92.59c-1.5-8.48,4.7-12.87,8.03-15.23c0.4-0.28,0.89-0.63,1.23-0.9 c-0.03-0.71-0.51-1.6-1.41-3.11c-1.48-2.49-3.5-5.91-1.95-10.26c1.35-3.78,5.27-5.03,7.87-6.49c2.22-1.25,3.83-2.77,4.63-5.31 c0.93-2.96,0.28-10.4,0.28-10.4l4.88-2.85c0,0,1.54,7.11,1.54,10.73c0,10.26-5.69,12.88-8.09,14.23 c-1.66,0.93-3.23,1.81-3.57,2.77c-0.25,0.7,0.1,1.49,1.3,3.51c1.44,2.42,3.4,5.75,2.12,10c-0.62,2.07-2.36,3.31-4.2,4.61 c-3.26,2.31-5.36,4.07-4.78,7.31L8.99,92.59z" fill="#F44336"/>
    <path d="M75.05,82.26c-3.56-0.85-5.99-2.97-8.17-4.77l5.1-6.17c0,0,1.81,2.69,5.78,3.93L75.05,82.26z" fill="#F44336"/>
    <polygon fill="#F44336" points="68.63,37.24 62.72,33.77 67,27 72.92,30.47 "/>
    <polygon fill="#F44336" points="83.97,113.56 76,108.61 82.15,101.77 88.3,107.61 "/>
    <rect fill="#FB8C00" height="8.59" transform="matrix(0.5863 -0.8101 0.8101 0.5863 -0.567 117.7778)" width="8" x="111.03" y="55.15"/>
    <polygon fill="#F44336" points="52.89,57.06 45.83,52.18 49.5,47.31 56.55,52.19 "/>
    <path d="M61.43,65.59c0,0,1.36-0.05,3.05,0.28c1.22-2.4,2.38-4.9,2.98-7.71c-2.08-0.47-3.75-0.24-3.75-0.24 L61.43,65.59z" fill="#0076C6"/>
    <path d="M70.92,66.53c-2.79-2.38-7.45-2.21-7.45-2.21l2.27-7.67c0,0,5.16-0.72,8.64,2.91L70.92,66.53z" fill="#FB8C00"/>
    <rect fill="#FB8C00" height="8" transform="matrix(0.9981 -0.0609 0.0609 0.9981 -6.2027 0.7084)" width="7.27" x="4.88" y="98.08"/>
    <path d="M43.17,96.91l-4.61-6.54c2.04-1.44,3.91-3.15,5.53-5.06l6.1,5.18 C48.12,92.92,45.76,95.08,43.17,96.91z" fill="#FB8C00"/>
    <path d="M43.23,115.39c-2.4-1.98-4.94-3.82-7.56-5.48l4.28-6.76c2.9,1.83,5.71,3.87,8.37,6.06L43.23,115.39 z" fill="#F44336"/>
    <path d="M87.85,80.09c0.28,3.31,0.67,5.69,1.41,8.79l5.27-4.23l-5.13-6.41L87.85,80.09z" fill="#0076C6"/>
    <rect fill="#FFC107" height="8" transform="matrix(0.7802 -0.6255 0.6255 0.7802 -34.3451 72.4306)" width="10.33" x="80.74" y="81.09"/>
    <path d="M76.62,125.26c-1.4-2.57-2.97-5.08-4.67-7.46l6.51-4.65c1.89,2.64,3.63,5.43,5.18,8.29 L76.62,125.26z" fill="#FB8C00"/>
  </g>
</svg>

<svg viewBox="0 0 128 128" xmlns="http://www.w3.org/2000/svg">
  <defs>
    <radialGradient id="SVGID_1_" cx="39.6622" cy="33.0658" gradientUnits="userSpaceOnUse" r="15.1022">
      <stop offset="0.3755" stop-color="#AF5700"/>
      <stop offset="1" stop-color="#8F4700"/>
    </radialGradient>
    <radialGradient id="SVGID_2_" cx="90.5009" cy="31.97" gradientUnits="userSpaceOnUse" r="21.224">
      <stop offset="0.3755" stop-color="#AF5700"/>
      <stop offset="1" stop-color="#8F4700"/>
    </radialGradient>
  </defs>
  <path d="M60.99,15.4 C62.12,16.97 62.08,19.09 60.89,20.61 C57.56,24.87 50.5,33.4 43.48,38.58 C34.82,44.98 26.93,47.85 22.91,49.02 C21.13,49.54 19.23,48.85 18.16,47.34 C15.52,43.63 11.32,35.68 12.97,24.43 C15.3,8.43 33.63,0.71 45.51,4.55 C57.39,8.39 60.99,15.4 60.99,15.4 L60.99,15.4 Z" fill="#FFC107"/>
  <path d="M24.5,46.03 C23.33,46.52 22.27,45.15 23.02,44.14 C25.22,41.2 29.49,36.38 37.28,30.1 C45.73,23.29 51.72,20.88 54.99,20.03 C56.12,19.74 56.99,21.01 56.31,21.96 C54.1,25.06 49.45,30.72 41.84,36.15 C34.46,41.42 28.2,44.47 24.5,46.03 Z" fill="url(#SVGID_1_)"/>
  <path d="M32.73,8.74 C33.19,10.72 35.69,11.41 38.11,11 C40.73,10.56 44.03,10.19 43.72,7.53 C43.4,4.78 39.02,4.89 37.4,4.98 C35.03,5.12 32.32,6.99 32.73,8.74 Z" fill="#FFEE58"/>
  <path d="M84.25,3.72 C96.21,0.5 113.77,4.62 117.29,25.34 C118.63,33.21 115.5,40.18 113.31,43.9 C112.23,45.74 110.12,46.72 108.03,46.3 C103.95,45.48 96.35,43.19 86.17,36.83 C80.51,33.3 72.81,26.42 68.45,22.37 C66.48,20.54 66.29,17.47 68.06,15.44 C71.52,11.47 77.61,5.51 84.25,3.72 Z" fill="#FFC107"/>
  <path d="M73.42,22.5 C72.79,21.87 73.39,20.81 74.26,21.03 C78.08,21.99 85.13,24.14 91.39,28.05 C97.81,32.07 104.3,38.18 107.59,41.45 C108.24,42.09 107.6,43.17 106.72,42.91 C102.7,41.74 95.31,39.14 88,34.21 C80.57,29.2 75.84,24.91 73.42,22.5 Z" fill="url(#SVGID_2_)"/>
  <path d="M83.59,11.84 C79.64,13.08 78.53,10.29 80.64,8.17 C82.16,6.64 88.57,3.91 94.13,5.07 C97.8,5.84 98.95,11.13 93.78,11.06 C90.26,11.01 88.43,10.32 83.59,11.84 Z" fill="#FFEE58"/>
  <path d="M110.02,120.05 C97.57,112.22 89.23,96.97 87.71,79.25 C86.34,63.24 90.22,47.03 93.34,34.01 L99.74,36.92 C96.76,49.38 94.42,63.84 95.68,78.56 C96.98,93.79 103.94,106.77 114.28,113.27 L110.02,120.05 Z" fill="#03A9F4"/>
  <path d="M60.58,117.29 L57.28,110 C61.19,108.23 63.45,103.1 62.11,99.03 C61.46,97.04 60.06,95.14 58.59,93.13 C57.39,91.49 56.14,89.79 55.12,87.84 C52.46,82.74 51.83,76.64 53.41,71.11 C54.21,68.32 55.48,65.85 56.72,63.46 C58.12,60.76 59.43,58.22 59.77,55.66 C60.08,53.29 59.52,50.78 58.22,48.77 C57.04,46.96 55.22,45.4 53.29,43.76 C51.83,42.51 50.31,41.22 48.92,39.7 C45.63,36.1 44.35,31.81 44.37,27.02 L49.94,24.91 C49.94,24.91 50.95,30.35 52.31,32.52 C53.74,34.79 55.87,36.33 57.89,38.05 C60.17,40 63.12,41.63 64.93,44.43 C67.25,48.01 68.26,52.49 67.7,56.73 C67.18,60.67 65.47,63.97 63.82,67.16 C62.72,69.29 61.68,71.3 61.1,73.33 C60.08,76.91 60.48,80.86 62.21,84.16 C62.95,85.58 63.96,86.96 65.04,88.43 C66.82,90.86 68.66,93.36 69.71,96.56 C72.34,104.51 68.24,113.83 60.58,117.29 Z" fill="#03A9F4"/>
  <path d="M10.51,123.31 L5.78,116.86 C36.11,94.64 39.34,62.1 37.2,45.52 L43.24,43.67 C45.61,62 44.15,98.67 10.51,123.31 Z" fill="#F48FB1"/>
  <path d="M94.92,73.36 C95.1,73.5 95.27,73.63 95.45,73.77 C95.39,70.48 95.55,67.17 95.86,63.89 C93.18,61.66 90.68,59.27 88.88,56.47 C88.83,56.39 88.79,56.31 88.74,56.23 C88.2,59.83 87.78,63.51 87.58,67.22 C89.97,69.51 92.53,71.51 94.92,73.36 Z" fill="#0076C6"/>
  <path d="M114.93,95.35 L107.67,91.98 C109.52,88 107.97,83.19 105.91,80.02 C103.23,75.9 99.01,72.62 94.92,69.45 C90.53,66.05 85.56,62.2 82.14,56.87 C75.85,47.08 76.96,34.89 84.05,25.66 L89.86,28.91 C84.76,35.56 84.35,45.49 88.87,52.54 C91.54,56.71 95.75,59.96 99.82,63.12 C104.22,66.53 109.2,70.39 112.62,75.65 C116.74,82 117.63,89.55 114.93,95.35 Z" fill="#F44336"/>
  <path d="M8.99,92.59 C7.49,84.11 13.69,79.72 17.02,77.36 C17.42,77.08 17.91,76.73 18.25,76.46 C18.22,75.75 17.74,74.86 16.84,73.35 C15.36,70.86 13.34,67.44 14.89,63.09 C16.24,59.31 20.16,58.06 22.76,56.6 C24.98,55.35 26.59,53.83 27.39,51.29 C28.32,48.33 27.67,40.89 27.67,40.89 L32.55,38.04 C32.55,38.04 34.09,45.15 34.09,48.77 C34.09,59.03 28.4,61.65 26,63 C24.34,63.93 22.77,64.81 22.43,65.77 C22.18,66.47 22.53,67.26 23.73,69.28 C25.17,71.7 27.13,75.03 25.85,79.28 C25.23,81.35 23.49,82.59 21.65,83.89 C18.39,86.2 16.29,87.96 16.87,91.2 L8.99,92.59 Z" fill="#F44336"/>
  <path d="M75.05,82.26 C71.49,81.41 69.06,79.29 66.88,77.49 L71.98,71.32 C71.98,71.32 73.79,74.01 77.76,75.25 L75.05,82.26 Z" fill="#F44336"/>
  <path d="M68.63,37.24 L62.72,33.77 L67,27 L72.92,30.47 Z" fill="#F44336"/>
  <path d="M83.97,113.56 L76,108.61 L82.15,101.77 L88.3,107.61 Z" fill="#F44336"/>
  <path d="M109.207,60.167 L113.897,53.686 L120.856,58.722 L116.166,65.203 L109.207,60.167 Z" fill="#FB8C00"/>
  <path d="M52.89,57.06 L45.83,52.18 L49.5,47.31 L56.55,52.19 Z" fill="#F44336"/>
  <path d="M61.43,65.59 C61.43,65.59 62.79,65.54 64.48,65.87 C65.7,63.47 66.86,60.97 67.46,58.16 C65.38,57.69 63.71,57.92 63.71,57.92 L61.43,65.59 Z" fill="#0076C6"/>
  <path d="M70.92,66.53 C68.13,64.15 63.47,64.32 63.47,64.32 L65.74,56.65 C65.74,56.65 70.9,55.93 74.38,59.56 L70.92,66.53 Z" fill="#FB8C00"/>
  <path d="M4.641,98.305 L11.897,97.862 L12.384,105.847 L5.128,106.29 L4.641,98.305 Z" fill="#FB8C00"/>
  <path d="M43.17,96.91 L38.56,90.37 C40.6,88.93 42.47,87.22 44.09,85.31 L50.19,90.49 C48.12,92.92 45.76,95.08 43.17,96.91 Z" fill="#FB8C00"/>
  <path d="M43.23,115.39 C40.83,113.41 38.29,111.57 35.67,109.91 L39.95,103.15 C42.85,104.98 45.66,107.02 48.32,109.21 L43.23,115.39 Z" fill="#F44336"/>
  <path d="M87.85,80.09 C88.13,83.4 88.52,85.78 89.26,88.88 L94.53,84.65 L89.4,78.24 L87.85,80.09 Z" fill="#0076C6"/>
  <path d="M79.37,85.194 L87.43,78.733 L92.434,84.974 L84.374,91.436 L79.37,85.194 Z" fill="#FFC107"/>
  <path d="M76.62,125.26 C75.22,122.69 73.65,120.18 71.95,117.8 L78.46,113.15 C80.35,115.79 82.09,118.58 83.64,121.44 L76.62,125.26 Z" fill="#FB8C00"/>
</svg>
